dist/svgs/unicons/line/border-out.svg

<svg xmlns="http://www.w3.org/2000/svg" viewBox="0 0 24 24"><path d="M12 9a1 1 0 10-1-1 1 1 0 001 1zm0 4a1 1 0 10-1-1 1 1 0 001 1zm4 0a1 1 0 10-1-1 1 1 0 001 1zm-4 4a1 1 0 10-1-1 1 1 0 001 1zm8-14H4a1 1 0 00-1 1v16a1 1 0 001 1h16a1 1 0 001-1V4a1 1 0 00-1-1zm-1 16H5V5h14zM8 13a1 1 0 10-1-1 1 1 0 001 1z"/></svg>

<svg xmlns="http://www.w3.org/2000/svg" viewBox="0 0 24 24"><path d="M12,9a1,1,0,1,0-1-1A1,1,0,0,0,12,9Zm0,4a1,1,0,1,0-1-1A1,1,0,0,0,12,13Zm4,0a1,1,0,1,0-1-1A1,1,0,0,0,16,13Zm-4,4a1,1,0,1,0-1-1A1,1,0,0,0,12,17ZM20,3H4A1,1,0,0,0,3,4V20a1,1,0,0,0,1,1H20a1,1,0,0,0,1-1V4A1,1,0,0,0,20,3ZM19,19H5V5H19ZM8,13a1,1,0,1,0-1-1A1,1,0,0,0,8,13Z"/></svg>
